resources/img/scalable/actions/flypie-menu-system-switchuser-symbolic.svg

<?xml version="1.0" encoding="UTF-8" standalone="no"?>
<svg
   xmlns:dc="http://purl.org/dc/elements/1.1/"
   xmlns:cc="http://creativecommons.org/ns#"
   xmlns:rdf="http://www.w3.org/1999/02/22-rdf-syntax-ns#"
   xmlns:svg="http://www.w3.org/2000/svg"
   xmlns="http://www.w3.org/2000/svg"
   width="4.2333mm"
   height="4.2333mm"
   version="1.1"
   viewBox="0 0 4.2333 4.2333"
   id="svg11842">
  <defs
     id="defs11846" />
  <metadata
     id="metadata11820">
    <rdf:RDF>
      <cc:Work
         rdf:about="">
        <dc:format>image/svg+xml</dc:format>
        <dc:type
           rdf:resource="http://purl.org/dc/dcmitype/StillImage" />
        <dc:title></dc:title>
      </cc:Work>
    </rdf:RDF>
  </metadata>
  <path
     d="m 0.79038,0.25998 c -0.43973196,0 -0.79374,0.35400804 -0.79374,0.79374 v 1.85206 c 0,0.439732 0.35400804,0.79374 0.79374,0.79374 h 2.6458 c 0.439732,0 0.79374,-0.354008 0.79374,-0.79374 V 1.05372 c 0,-0.43973196 -0.354008,-0.79374 -0.79374,-0.79374 z m 0,0.52916 h 2.6458 c 0.1465773,0 0.26458,0.11800268 0.26458,0.26458 v 1.85206 c 0,0.1465773 -0.1180027,0.26458 -0.26458,0.26458 H 0.79038 C 0.64380268,3.17036 0.5258,3.0523573 0.5258,2.90578 V 1.05372 c 0,-0.14657732 0.11800268,-0.26458 0.26458,-0.26458 z"
     fill="#2e3436"
     id="path11826"
     style="stroke-width:0.26458" />
  <path
     d="M 2.11328,4.22868 C 2.90702,4.22868 3.1716,3.9641 3.1716,3.9641 H 1.05496 c 0,0 0.26458,0.26458 1.05832,0.26458 z"
     fill="#2e3436"
     id="path11828"
     style="stroke-width:0.26458" />
  <path
     id="path3043"
     style="color:#bebebe;display:inline;overflow:visible;visibility:visible;fill:#2e3436;fill-opacity:1;fill-rule:nonzero;stroke:none;stroke-width:0.488461;marker:none;enable-background:accumulate"
     d="m 1.5805896,1.7043592 c -0.014605,5.612e-4 -0.029027,0.00345 -0.042746,0.00849 -0.1032682,0.015573 -0.3723895,0.09693 -0.3723895,0.5546166 V 2.9689472 H 1.7266412 V 2.310758 c 0.014079,0.00988 0.028274,0.019247 0.043021,0.027403 0.080808,0.044686 0.161748,0.060894 0.2375728,0.066586 V 2.2674638 H 2.1475312 V 2.1271671 c -2.806e-4,-1.4e-6 -5.611e-4,-1.4e-6 -8.417e-4,0 C 2.0376537,2.1277283 1.9624294,2.1239684 1.905281,2.0923665 1.8481311,2.0607619 1.783272,1.9935093 1.7194973,1.8021825 1.7004408,1.7420541 1.6436024,1.7020331 1.5805699,1.7043592 Z" />
  <path
     style="color:#bebebe;display:inline;overflow:visible;visibility:visible;fill:#2e3436;fill-opacity:0.5;fill-rule:nonzero;stroke:none;stroke-width:0.488461;marker:none;enable-background:accumulate"
     d="m 2.708718,1.0047939 c -0.1549675,0 -0.2805934,0.1256258 -0.2805934,0.2805933 0,0.1549675 0.1256259,0.2805934 0.2805934,0.2805934 0.1549675,0 0.2805933,-0.1256259 0.2805933,-0.2805934 0,-0.1549675 -0.1256258,-0.2805933 -0.2805933,-0.2805933 z"
     id="path3041" />
  <path
     style="color:#bebebe;display:inline;overflow:visible;visibility:visible;fill:#2e3436;fill-opacity:1;fill-rule:nonzero;stroke:none;stroke-width:0.488461;marker:none;enable-background:accumulate"
     d="m 1.5863445,1.0047939 c -0.1549675,0 -0.2805933,0.1256258 -0.2805933,0.2805933 0,0.1549675 0.1256258,0.2805934 0.2805933,0.2805934 0.1549675,0 0.2805934,-0.1256259 0.2805934,-0.2805934 0,-0.1549675 -0.1256259,-0.2805933 -0.2805934,-0.2805933 z"
     id="path4110" />
  <path
     id="rect3029"
     style="fill:#2e3436;fill-opacity:0.5;stroke-width:0.79375;stop-color:#000000"
     d="m 2.7144729,1.7043592 c -0.063033,-0.00233 -0.1198709,0.037695 -0.1389274,0.097823 -0.063775,0.1913268 -0.1286338,0.2585794 -0.1857836,0.290184 -0.057148,0.031602 -0.1323727,0.035362 -0.2414085,0.034801 -2.806e-4,-1.4e-6 -5.612e-4,-1.4e-6 -8.418e-4,0 V 2.2674638 H 2.0072149 v 0.1372831 c 0.023651,0.00178 0.046838,0.00244 0.069326,0.00274 4.209e-4,2.8e-6 4.209e-4,2.806e-4 8.418e-4,2.806e-4 h 0.069326 c 5.612e-4,-2.8e-6 0.00112,2.8e-6 0.00164,0 h 0.069329 c 4.209e-4,0 4.209e-4,-2.806e-4 8.418e-4,-2.806e-4 0.09458,-0.00126 0.2008852,-0.010705 0.3068989,-0.069326 0.014747,-0.00815 0.028942,-0.017526 0.043021,-0.027403 V 2.9689472 H 3.1296276 V 2.2674638 c 0,-0.4576871 -0.2691213,-0.5390507 -0.3723894,-0.5546096 -0.013721,-0.00504 -0.028141,-0.00793 -0.042746,-0.00849 z" />
</svg>

<svg xmlns="http://www.w3.org/2000/svg" width="16" height="16" viewBox="0 0 4.233 4.233"><path d="M.79.26a.792.792 0 0 0-.793.794v1.852c0 .44.354.794.793.794h2.646c.44 0 .794-.354.794-.794V1.054A.792.792 0 0 0 3.436.26zm0 .53h2.646c.147 0 .265.117.265.264v1.852a.264.264 0 0 1-.265.264H.79a.264.264 0 0 1-.264-.264V1.054C.526.907.644.789.79.789zM2.113 4.229c.794 0 1.059-.265 1.059-.265H1.055s.265.265 1.058.265z" fill="#2e3436" style="stroke-width:.26458"/><path style="color:#bebebe;display:inline;overflow:visible;visibility:visible;fill:#2e3436;fill-opacity:1;fill-rule:nonzero;stroke:none;stroke-width:.488461;marker:none;enable-background:accumulate" d="M1.58 1.704a.14.14 0 0 0-.042.009c-.103.015-.373.097-.373.554v.702h.562V2.31a.566.566 0 0 0 .28.094v-.138h.14v-.14c-.11 0-.185-.003-.242-.035-.057-.031-.122-.098-.186-.29a.14.14 0 0 0-.138-.098Z"/><path style="color:#bebebe;display:inline;overflow:visible;visibility:visible;fill:#2e3436;fill-opacity:.5;fill-rule:nonzero;stroke:none;stroke-width:.488461;marker:none;enable-background:accumulate" d="M2.709 1.005a.28.28 0 1 0 0 .561.28.28 0 0 0 0-.561z"/><path style="color:#bebebe;display:inline;overflow:visible;visibility:visible;fill:#2e3436;fill-opacity:1;fill-rule:nonzero;stroke:none;stroke-width:.488461;marker:none;enable-background:accumulate" d="M1.586 1.005a.28.28 0 1 0 0 .561.28.28 0 0 0 0-.561z"/><path style="fill:#2e3436;fill-opacity:.5;stroke-width:.79375;stop-color:#000" d="M2.714 1.704a.14.14 0 0 0-.138.098c-.064.192-.13.259-.186.29-.057.032-.133.036-.242.035v.14h-.14v.138c.023.002.046.002.069.002H2.218c.095 0 .201-.01.307-.069a.478.478 0 0 0 .043-.027v.658h.562v-.702c0-.457-.27-.539-.373-.554a.14.14 0 0 0-.043-.009z"/></svg>
